X:6037
T:Silent The Lonely Glen
O:england
R:Air
C:Ed Reavy
M:2/4
L:1/8
N:The tune laments the passing of the old ways and
N:the tradition as Ed remembers it: the old Ireland
N:he once knew.
K:G
g/2f/2|ed/2B/2 AG/2A/2|B/2d^c/2 dg/2f/2|ed/2B/2 AG/2A/2|
B/2>A/2G/2/F/2 eg/2f/2|ed/2B/2 ba/2g/2|g/2f/2e/2^d/2|
eg/2B/2 AF/2A/2|BG/2E/2 Ee/2f/2|ge/2g/2 ba/2g/2|
fd/2f/2 ag/2f/2|ge/2g/2 ba/2g/2|fd/2f/2 ag/2f/2|
ge/2g/2 ba/2g/f/2ed/2ee/2f/2ge/2g/2 fd/2f/2|
ed/2B/2 Bgf|ed/2B/2 AG/2A/2|bG/2E/2E||


